X: 100093
M: C|
L: 1/8
K: Bb
u(FA) |\
|: u(fe) |\
dBfd bfdB | cAfc afcA | GEBG ecdB | cABG F2(GA) |


